source/images/icons/icon-editorial/recyclage.svg

<?xml version="1.0" encoding="UTF-8"?>
<svg width="80px" height="80px" viewBox="0 0 80 80" version="1.1" xmlns="http://www.w3.org/2000/svg" xmlns:xlink="http://www.w3.org/1999/xlink">
    <!-- Generator: Sketch 55.2 (78181) - https://sketchapp.com -->
    <title>Illustrative Icons/Recyclage</title>
    <desc>Created with Sketch.</desc>
    <g id="Illustrative-Icons/Recyclage" stroke="none" stroke-width="1" fill="none" fill-rule="evenodd">
        <path d="M45.7823028,26.0076801 C45.2705376,25.6895878 44.6269286,25.6724991 44.0990048,25.9629862 C43.5710809,26.2534733 43.241062,26.8062952 43.2358717,27.4088393 C43.2306814,28.0113834 43.5511281,28.5698084 44.0739695,28.8693467 L52.3289695,33.8010134 L52.3473028,33.8110134 C52.4659521,33.8821637 52.5930546,33.938156 52.7256361,33.9776801 L52.7756361,33.9910134 C52.8256361,34.0032356 52.8767473,34.0132356 52.9289695,34.0210134 L52.9823028,34.0210134 C53.0480917,34.0293803 53.1143194,34.0338325 53.1806361,34.0343467 L53.1939695,34.0343467 C53.2456361,34.0343467 53.2956361,34.0343467 53.3473028,34.0343467 L53.4423028,34.0210134 L53.5073028,34.0110134 C53.5439695,34.0110134 53.5789695,33.9943467 53.6156361,33.9843467 L53.6656361,33.9710134 C53.7006361,33.9610134 53.7356361,33.9476801 53.7706361,33.9343467 L53.8189695,33.9160134 C53.8523028,33.9026801 53.8823028,33.8876801 53.9139695,33.8710134 L53.9673028,33.8460134 C53.9973028,33.8310134 54.0239695,33.8126801 54.0523028,33.7960134 L54.1073028,33.7626801 C54.1356361,33.7443467 54.1623028,33.7226801 54.1889695,33.7026801 L54.2389695,33.6643467 C54.2723028,33.6360134 54.3056361,33.6060134 54.3373028,33.5760134 L54.3606361,33.5560134 L54.3606361,33.5560134 L54.3706361,33.5460134 C54.4028584,33.5126801 54.4334139,33.4787912 54.4623028,33.4443467 L54.4923028,33.4060134 C54.5139695,33.3793467 54.5339695,33.3526801 54.5539695,33.3243467 L54.5856361,33.2743467 C54.6023028,33.2493467 54.6173028,33.2226801 54.6323028,33.1960134 L54.6623028,33.1393467 C54.6756361,33.1143467 54.6873028,33.0893467 54.6989695,33.0626801 L54.7256361,32.9993467 C54.7356361,32.9726801 54.7456361,32.9476801 54.7539695,32.9210134 C54.7623028,32.8943467 54.7689695,32.8793467 54.7756361,32.8576801 C54.7823028,32.8360134 54.8006361,32.7660134 54.8106361,32.7193467 C54.8106361,32.7043467 54.8106361,32.6876801 54.8106361,32.6726801 C54.8106361,32.6576801 54.8223028,32.6010134 54.8273028,32.5660134 C54.8323028,32.5310134 54.8273028,32.5293467 54.8273028,32.5110134 C54.8273028,32.4926801 54.8273028,32.4410134 54.8273028,32.4060134 C54.8273028,32.3960134 54.8273028,32.3860134 54.8273028,32.3760134 L54.8273028,22.9676801 C54.8273028,22.0472055 54.0811107,21.3010134 53.1606361,21.3010134 C52.2401616,21.3010134 51.4939695,22.0472055 51.4939695,22.9676801 L51.4939695,26.3010134 L41.1506361,8.81601337 C40.8491513,8.30805204 40.3013203,7.99761541 39.7106325,8 C39.1199448,8.00241218 38.5746528,8.31728724 38.2773028,8.82768004 L25.7156361,30.3843467 C25.2521772,31.1796368 25.5211795,32.2000544 26.3164695,32.6635133 C27.1117595,33.1269723 28.1321771,32.8579701 28.5956361,32.0626801 L39.7306361,12.9543467 L48.3973028,27.5710134 L45.7823028,26.0076801 Z M26.4956361,59.6660134 L13.4956361,59.6426801 L21.7773028,44.7993467 L21.7406361,47.8476801 C21.7352998,48.2897169 21.905797,48.7157656 22.2146138,49.032084 C22.5234305,49.3484023 22.9452651,49.5290741 23.3873028,49.5343468 L23.4073028,49.5343468 C24.3200231,49.5344125 25.0630168,48.8003347 25.0739694,47.8876801 L25.1889694,38.2726801 C25.1889694,38.2610134 25.1889694,38.2493467 25.1889694,38.2393467 C25.1889694,38.2293467 25.1889694,38.1910134 25.1889694,38.1660134 C25.1889694,38.1410134 25.1889694,38.1143467 25.1889694,38.0876801 C25.1889694,38.0610134 25.1889694,38.0393467 25.1806361,38.0160134 C25.1723028,37.9926801 25.1706361,37.9610134 25.1656361,37.9326801 C25.1606361,37.9043467 25.1656361,37.8893467 25.1523028,37.8676801 C25.1389694,37.8460134 25.1306361,37.7843467 25.1173028,37.7426801 L25.1039694,37.7043467 C25.089525,37.6632356 25.0734139,37.6226801 25.0556361,37.5826801 L25.0339694,37.5376801 C25.0189694,37.5043467 25.0023028,37.4726801 24.9839694,37.4410134 L24.9723028,37.4176801 L24.9573028,37.3943467 C24.9389694,37.3643467 24.9189694,37.3343467 24.8989694,37.3043467 L24.8689694,37.2610134 C24.8456361,37.2293467 24.8206361,37.1993467 24.7939694,37.1693467 L24.7523028,37.1226801 C24.7256361,37.0943467 24.6989694,37.0660134 24.6706361,37.0393467 L24.6206361,36.9960134 L24.5556361,36.9426801 L24.5006361,36.9026801 L24.4289694,36.8543467 L24.3739694,36.8210134 L24.2923028,36.7760134 L24.2406361,36.7493467 L24.1423028,36.7076801 L24.1023028,36.6910134 C24.0556361,36.6743467 24.0073028,36.6593467 23.9589694,36.6460134 L23.9589694,36.6460134 L23.9423028,36.6460134 C23.8973028,36.6343467 23.8539694,36.6243467 23.8089694,36.6176801 L23.7689694,36.6176801 L23.6589694,36.6043467 L23.6089694,36.6043467 L23.4523028,36.6043467 L23.3556361,36.6043467 L23.2989694,36.6043467 L23.1989694,36.6226801 L23.1489694,36.6326801 C23.1006361,36.6443467 23.0523028,36.6576801 23.0056361,36.6726801 L22.9806361,36.6826801 C22.9406361,36.6976801 22.9006361,36.7126801 22.8606361,36.7293467 L22.8189694,36.7493467 L22.7156361,36.8026801 L22.6939694,36.8143467 L14.5573028,41.5360134 C14.0090193,41.8165684 13.6601487,42.3766248 13.650067,42.9924367 C13.6399852,43.6082485 13.9703359,44.1794248 14.5091418,44.477777 C15.0479477,44.7761293 15.7073715,44.7530195 16.2239694,44.4176801 L19.0989694,42.7510134 L9.20730275,60.4993468 C8.92288268,61.014961 8.93165682,61.6423921 9.23038377,62.1498516 C9.52911073,62.657311 10.0734475,62.9694715 10.6623028,62.9710134 L26.4956361,62.9993468 L26.4956361,62.9993468 C27.4161107,62.9993468 28.1623028,62.2531547 28.1623028,61.3326801 C28.1623028,60.4122055 27.4161107,59.6660134 26.4956361,59.6660134 Z M71.0139695,60.5176801 L58.7589695,38.6360134 C58.4715719,38.1097374 57.9236191,37.7784144 57.3240666,37.7681565 C56.724514,37.7583664 56.1657917,38.0711868 55.8609619,38.5875613 C55.5561322,39.1039357 55.552189,39.7442573 55.8506361,40.2643467 L66.7156362,59.6660134 L49.6523028,59.6660134 L52.3906361,58.1660134 C52.9125416,57.8790101 53.2416877,57.3353748 53.2540883,56.7398897 C53.2664888,56.1444046 52.9602599,55.5875381 52.4507549,55.2790564 C51.94125,54.9705746 51.305875,54.9573434 50.7839695,55.2443468 L42.3573028,59.8776801 L42.3289695,59.8943468 L42.2639695,59.9326801 L42.2006361,59.9760134 L42.1406361,60.0193468 L42.0773028,60.0710134 L42.0256361,60.1160134 C41.9934139,60.1460134 41.9623028,60.1776801 41.9323028,60.2110134 L41.9039695,60.2426801 C41.8756361,60.2743468 41.8489695,60.3076801 41.8239695,60.3410134 L41.7956361,60.3826801 C41.7756361,60.4126801 41.7556361,60.4426801 41.7356361,60.4726801 L41.7206361,60.4960134 L41.7073028,60.5210134 C41.6906361,60.5510134 41.6739695,60.5826801 41.6589695,60.6143468 L41.6356361,60.6626801 C41.6189695,60.6993468 41.6039695,60.7376801 41.5906361,60.7760134 C41.5773028,60.8143468 41.5756361,60.8210134 41.5689695,60.8426801 C41.5623028,60.8643468 41.5489695,60.9093468 41.5406361,60.9443468 C41.5323028,60.9793468 41.5306361,60.9893468 41.5273028,61.0110134 C41.5239695,61.0326801 41.5173028,61.0643468 41.5123028,61.0926801 C41.5073028,61.1210134 41.5123028,61.1393468 41.5039695,61.1610134 C41.4956361,61.1826801 41.5039695,61.2160134 41.5039695,61.2443468 C41.5039695,61.2726801 41.5039695,61.2876801 41.5039695,61.3093468 C41.5039695,61.3310134 41.5039695,61.3693468 41.5039695,61.4010134 C41.5039695,61.4326801 41.5039695,61.4393468 41.5039695,61.4593468 C41.5039695,61.4793468 41.5039695,61.5310134 41.5156361,61.5660134 C41.5273028,61.6010134 41.5156361,61.5943468 41.5156361,61.6076801 C41.5156361,61.6560134 41.5339695,61.7043468 41.5456361,61.7510134 L41.5456361,61.7510134 C41.5456361,61.7626801 41.5456361,61.7743468 41.5573028,61.7876801 C41.5689695,61.8010134 41.5789695,61.8610134 41.5906361,61.8960134 L41.6106361,61.9460134 C41.6223028,61.9760134 41.6339695,62.0060134 41.6473028,62.0343468 L41.6739695,62.0893468 C41.6873028,62.1160134 41.7006361,62.1410134 41.7156361,62.1676801 L41.7489695,62.2243468 L41.7956361,62.2943468 L41.8356361,62.3493468 L41.8906361,62.4160134 L41.9339695,62.4660134 C41.9661917,62.5004579 42.0000806,62.5337912 42.0356361,62.5660134 L42.0773028,62.6010134 L42.1556361,62.6643468 L42.2023028,62.6976801 L42.2889695,62.7543468 L42.3156361,62.7710134 L50.4289695,67.5226801 C50.9428365,67.8236764 51.5782488,67.8276636 52.0958527,67.5331398 C52.6134566,67.2386161 52.9346158,66.6903265 52.9383527,66.0948065 C52.9420896,65.4992865 52.6278365,64.9470097 52.1139695,64.6460134 L49.3073028,62.9993468 L69.5589695,62.9993468 C70.1505614,62.9991789 70.6977301,62.6854203 70.9966897,62.1749262 C71.2956492,61.6644322 71.3015913,61.0337161 71.0123028,60.5176801 L71.0139695,60.5176801 Z M34.8289695,62.9993468 C35.749444,62.9993468 36.4956361,62.2531547 36.4956361,61.3326801 C36.4956361,60.4122055 35.749444,59.6660134 34.8289695,59.6660134 C33.9084949,59.6660134 33.1623028,60.4122055 33.1623028,61.3326801 C33.1623028,62.2531547 33.9084949,62.9993468 34.8289695,62.9993468 Z" id="Shape-color" fill="#ADB5BD"></path>
    </g>
</svg>

<svg width="80" height="80">
    <title>
        Illustrative Icons/Recyclage
    </title>
    <path d="M45.782 26.008a1.667 1.667 0 1 0-1.708 2.861l8.255 4.932.018.01c.119.071.246.127.379.167l.05.013a1.7 1.7 0 0 0 .153.03h.053c.066.008.132.013.199.013h.166l.095-.013.065-.01c.037 0 .072-.017.109-.027l.05-.013c.035-.01.07-.023.105-.037l.048-.018a.99.99 0 0 0 .095-.045l.053-.025c.03-.015.057-.033.085-.05l.055-.033c.029-.019.055-.04.082-.06l.05-.039c.033-.028.067-.058.098-.088l.024-.02.01-.01a1.94 1.94 0 0 0 .091-.102l.03-.038c.022-.027.042-.053.062-.082l.032-.05c.016-.025.031-.051.046-.078l.03-.057c.014-.025.025-.05.037-.076l.027-.064c.01-.026.02-.051.028-.078.008-.027.015-.042.022-.063a2.3 2.3 0 0 0 .035-.139v-.046c0-.015.011-.072.016-.107.005-.035 0-.037 0-.055v-.105V22.968a1.667 1.667 0 0 0-3.333 0V26.3L41.151 8.816a1.667 1.667 0 0 0-2.874.012L25.716 30.384a1.667 1.667 0 0 0 2.88 1.679L39.73 12.954l8.666 14.617-2.615-1.563zM26.496 59.666l-13-.023 8.281-14.844-.036 3.049a1.667 1.667 0 0 0 1.646 1.686h.02c.913 0 1.656-.734 1.667-1.646l.115-9.615v-.034-.073-.078c0-.027 0-.049-.008-.072-.009-.023-.01-.055-.015-.083-.005-.029 0-.044-.014-.065-.013-.022-.021-.084-.035-.125l-.013-.039a1.63 1.63 0 0 0-.048-.121l-.022-.045a1.06 1.06 0 0 0-.05-.097l-.012-.023-.015-.024a2.742 2.742 0 0 0-.058-.09l-.03-.043a1.287 1.287 0 0 0-.075-.092l-.042-.046a1.926 1.926 0 0 0-.081-.084l-.05-.043-.065-.053-.055-.04-.072-.049-.055-.033-.082-.045-.051-.027-.099-.041-.04-.017a2.045 2.045 0 0 0-.143-.045h-.017a1.267 1.267 0 0 0-.133-.028h-.04l-.11-.014H23.299l-.1.019-.05.01a2.018 2.018 0 0 0-.143.04l-.025.01-.12.046-.042.02-.103.054-.022.011-8.137 4.722a1.667 1.667 0 1 0 1.667 2.882l2.875-1.667-9.892 17.748a1.667 1.667 0 0 0 1.455 2.472l15.834.028a1.667 1.667 0 0 0 0-3.333zm44.518.852L58.759 38.636a1.667 1.667 0 1 0-2.908 1.628l10.865 19.402H49.652l2.739-1.5a1.667 1.667 0 1 0-1.607-2.922l-8.427 4.634-.028.016-.065.039-.063.043-.06.043-.064.052-.051.045c-.033.03-.064.062-.094.095l-.028.032a1.473 1.473 0 0 0-.08.098l-.028.042-.06.09-.015.023-.014.025a1.64 1.64 0 0 0-.048.093l-.023.049a1.336 1.336 0 0 0-.045.113c-.014.038-.015.045-.022.067a1.865 1.865 0 0 0-.042.168c-.003.022-.01.053-.015.082-.005.028 0 .046-.008.068-.008.022 0 .055 0 .083v.215c0 .02 0 .072.012.107.011.035 0 .028 0 .042 0 .048.018.096.03.143 0 .012 0 .023.011.037.012.013.022.073.034.108l.02.05c.011.03.023.06.036.088l.027.055c.013.027.027.052.042.079l.033.056.047.07.04.055.055.067.043.05c.032.034.066.068.102.1l.041.035.079.063.046.034.087.056.027.017 8.113 4.752a1.667 1.667 0 1 0 1.685-2.877l-2.807-1.647H69.56a1.667 1.667 0 0 0 1.453-2.481h.002zm-36.185 2.481a1.667 1.667 0 1 0 0-3.333 1.667 1.667 0 0 0 0 3.333z" fill="#ADB5BD" fill-rule="evenodd"/>
</svg>
